X: 100
P: Malungslek 1
O: efter Nancy Kalinski
Z: 1998 by John Chambers <jc@trillian.mit.edu>
M: 3/4
L: 1/8
K: Dm
|: "Dm"A2 A>^c d>e | "Dm"f>e f<g "A7"e>g | "Dm"f>e d>^c "(A7)"d>f |1 "A7"e>d (3^cAc A2 :|2,4 (3e^ce "Dm"{c}d4 :|
|: "A7"a2 (3aba (3gag | "Dm"f>e f<g "A7"e>g | "Dm"f>e d>^c "(A7)"d>f |1,3 "A7"e>d (3^cAc A2 :|2,4 (3e^ce "Dm"{c}d4 :|
